X: 496
T: A' Da Ships Are Sailin'
R: reel
M: 4/4
K: Gmajor
A|:BGBd cAFA|BGBd gded|BGBd cAFA|BGAF G2 GA|
BGBd cAFA|BGBd gded|BGBd cAFA|BGAF G2 GD:|
|:GABd g2a2|gedc BGGD|GABd g2a2|ge^c3e d2 dA|
GABd g2a2|ged=c BGGD|GABd g2a2|ge^ce d2 dA:|

